X: 10483
T: SPANISH DOLLAR -- Hornpipe
C: Arranged by W. B. Laybourn
R: hornpipe
B: K\"ohler's Violin Repository, v.1, 1885 p.48 #3
F: http://www.archive.org/details/klersviolinrepos01edin
Z: 2011 John Chambers <jc:trillian.mit.edu>
M: C|
L: 1/8
K: G
(uBc) |\
d(gfg) edcB | d(gfg) edcB | EGBG AGBG | DGBG AGEG |
d(gfg) edcB | d(gfg) edcB | gfgd cDEF | A2G2 G2 :|
|: (uBc) |\
d2d2 dBGB | c2e2 e2(dc) | BGBd egfa | g2g2 g2(dc) |
BGBd eceg | fdfa gfga | b(gfg) ecAF | A2G2 G2 :|

%%sep 2 1 500

